svgs/davx5.svg

<svg viewBox="0 0 192 192" xml:space="preserve" style="fill-rule:evenodd;clip-rule:evenodd;stroke-linejoin:round;stroke-miterlimit:2" xmlns="http://www.w3.org/2000/svg"><path d="M774.436 356.981c-11.316 9.782-26.058 15.701-42.172 15.701-29.135 0-53.786-19.345-61.798-45.88a6.003 6.003 0 0 0-7.478-4.01 6.003 6.003 0 0 0-4.01 7.478c9.501 31.469 38.735 54.412 73.286 54.412 19.805 0 37.865-7.538 51.46-19.9l18.415 15.467a6 6 0 0 0 9.857-4.716l-.982-48.562a5.998 5.998 0 0 0-6.915-5.809l-48.002 7.42a6 6 0 0 0-2.943 10.524l21.282 17.875Zm24.719-22.912.576 28.487-28.734-24.134 28.158-4.353ZM681.498 250.88l-19.639-16.477a6.001 6.001 0 0 0-9.855 4.721l1.008 48.562a5.999 5.999 0 0 0 6.919 5.805l47.998-7.446a6.002 6.002 0 0 0 2.937-10.526l-20.056-16.826c11.216-9.415 25.677-15.089 41.454-15.089 28.62 0 52.915 18.67 61.358 44.485a6.003 6.003 0 0 0 7.568 3.837 6.003 6.003 0 0 0 3.838-7.568c-10.013-30.613-38.824-52.754-72.764-52.754-19.47 0-37.251 7.284-50.766 19.276Zm-16.631 29.701-.591-28.486 28.747 24.118-28.156 4.368Z" style="fill-rule:evenodd;clip-rule:evenodd;stroke-linejoin:round;stroke-miterlimit:2" transform="translate(-636 -212)"/></svg>

<?xml version="1.0" encoding="UTF-8" standalone="no"?>
<svg
   width="100%"
   height="100%"
   viewBox="0 0 192 192"
   version="1.1"
   xml:space="preserve"
   style="fill-rule:evenodd;clip-rule:evenodd;stroke-linejoin:round;stroke-miterlimit:2;"
   id="svg10"
   sodipodi:docname="davx5.svg"
   inkscape:version="1.2.1 (9c6d41e410, 2022-07-14)"
   xmlns:inkscape="http://www.inkscape.org/namespaces/inkscape"
   xmlns:sodipodi="http://sodipodi.sourceforge.net/DTD/sodipodi-0.dtd"
   xmlns="http://www.w3.org/2000/svg"
   xmlns:svg="http://www.w3.org/2000/svg"><defs
   id="defs14" /><sodipodi:namedview
   id="namedview12"
   pagecolor="#ffffff"
   bordercolor="#000000"
   borderopacity="0.25"
   inkscape:showpageshadow="2"
   inkscape:pageopacity="0.0"
   inkscape:pagecheckerboard="0"
   inkscape:deskcolor="#d1d1d1"
   showgrid="false"
   inkscape:zoom="5.3489583"
   inkscape:cx="96"
   inkscape:cy="95.906524"
   inkscape:window-width="1274"
   inkscape:window-height="1303"
   inkscape:window-x="1282"
   inkscape:window-y="36"
   inkscape:window-maximized="0"
   inkscape:current-layer="svg10" />
    <path
   d="M774.436,356.981C763.12,366.763 748.378,372.682 732.264,372.682C703.129,372.682 678.478,353.337 670.466,326.802C669.509,323.632 666.158,321.835 662.988,322.792C659.818,323.749 658.021,327.1 658.978,330.27C668.479,361.739 697.713,384.682 732.264,384.682C752.069,384.682 770.129,377.144 783.724,364.782L802.139,380.249C803.941,381.763 806.463,382.083 808.587,381.067C810.711,380.051 812.044,377.887 811.996,375.533L811.014,326.971C810.979,325.241 810.199,323.61 808.874,322.498C807.549,321.385 805.809,320.898 804.099,321.162L756.097,328.582C753.77,328.942 751.869,330.629 751.235,332.896C750.601,335.164 751.351,337.592 753.154,339.106L774.436,356.981ZM799.155,334.069L799.731,362.556C799.731,362.556 770.997,338.422 770.997,338.422L799.155,334.069ZM681.498,250.88L661.859,234.403C660.055,232.89 657.533,232.572 655.41,233.589C653.287,234.606 651.955,236.771 652.004,239.124L653.012,287.686C653.048,289.416 653.829,291.046 655.155,292.158C656.48,293.27 658.221,293.756 659.931,293.491L707.929,286.045C710.255,285.684 712.156,283.996 712.789,281.728C713.421,279.46 712.669,277.032 710.866,275.519L690.81,258.693C702.026,249.278 716.487,243.604 732.264,243.604C760.884,243.604 785.179,262.274 793.622,288.089C794.652,291.236 798.043,292.956 801.19,291.926C804.338,290.897 806.057,287.506 805.028,284.358C795.015,253.745 766.204,231.604 732.264,231.604C712.794,231.604 695.013,238.888 681.498,250.88ZM664.867,280.581L664.276,252.095C664.276,252.095 693.023,276.213 693.023,276.213L664.867,280.581Z"
   id="path4"
   style="fill-rule:evenodd;clip-rule:evenodd;stroke-linejoin:round;stroke-miterlimit:2"
   transform="translate(-636,-212)"
   inkscape:label="DavX5-Form" />
</svg>
